SVG/bars.svg

<?xml version="1.0" encoding="utf-8"?>
<!-- Generated by IcoMoon.io -->
<!DOCTYPE svg PUBLIC "-//W3C//DTD SVG 1.1//EN" "http://www.w3.org/Graphics/SVG/1.1/DTD/svg11.dtd">
<svg version="1.1" xmlns="http://www.w3.org/2000/svg" xmlns:xlink="http://www.w3.org/1999/xlink" width="12" height="14" viewBox="0 0 12 14">
<path fill="#444444" d="M12 10.5v1q0 0.203-0.148 0.352t-0.352 0.148h-11q-0.203 0-0.352-0.148t-0.148-0.352v-1q0-0.203 0.148-0.352t0.352-0.148h11q0.203 0 0.352 0.148t0.148 0.352zM12 6.5v1q0 0.203-0.148 0.352t-0.352 0.148h-11q-0.203 0-0.352-0.148t-0.148-0.352v-1q0-0.203 0.148-0.352t0.352-0.148h11q0.203 0 0.352 0.148t0.148 0.352zM12 2.5v1q0 0.203-0.148 0.352t-0.352 0.148h-11q-0.203 0-0.352-0.148t-0.148-0.352v-1q0-0.203 0.148-0.352t0.352-0.148h11q0.203 0 0.352 0.148t0.148 0.352z"></path>
</svg>

<svg xmlns="http://www.w3.org/2000/svg" viewBox="0 0 12 14"><path d="M12 10.5v1q0 .203-.148.352T11.5 12H.5q-.203 0-.352-.148T0 11.5v-1q0-.203.148-.352T.5 10h11q.203 0 .352.148T12 10.5zm0-4v1q0 .203-.148.352T11.5 8H.5q-.203 0-.352-.148T0 7.5v-1q0-.203.148-.352T.5 6h11q.203 0 .352.148T12 6.5zm0-4v1q0 .203-.148.352T11.5 4H.5q-.203 0-.352-.148T0 3.5v-1q0-.203.148-.352T.5 2h11q.203 0 .352.148T12 2.5z" /></svg>
